X:6
T:Vals 
S:efter Anders Peter Roos
O:Hägerstad, Östergötland 
R:Vals
B:Ög 17
B:http://www.smus.se/earkiv/fmk/browselarge.php?lang=sw&katalogid=%C3%96g+17&bildnr=00008
M:3/8
L:1/16
K:G
(Bc) | d3(edc) | (B2g2).B2 | (A2c2).A2 | (GB).d.gb2 | d3(edc) | (B2g2).B2 | A2c2A2 | G4 ::
(Bc) | .d.B(cA)(GB) | .d.B(cA).B2 | .A.B(cd)(ef) | .a.f.ged2 | .d.B(cA)(GB) | .d.B(cA).B2 | A2a2f2 | g4 :|]

